fe/src/assets/icons/arrow.svg

<svg width="36" height="22" viewBox="0 0 36 22" fill="none" xmlns="http://www.w3.org/2000/svg">
<path d="M0.229889 11.0503C0.236764 10.667 0.386531 10.2208 0.64587 9.93594L9.10783 0.643331C9.68315 0.108744 10.8036 -0.130636 11.4722 0.458749C12.1307 1.03937 12.1362 2.19218 11.5059 2.80269L5.55602 9.32817L34.2834 8.71152C35.1798 8.69227 35.9222 9.39633 35.9412 10.2838C35.9603 11.1713 35.2488 11.9065 34.3524 11.9258L5.62502 12.5424L11.8494 18.8066C12.4153 19.344 12.5432 20.5352 11.9163 21.1498C11.2899 21.7647 10.1206 21.5977 9.54623 21.0665L0.6933 12.1455C0.390332 11.8403 0.238306 11.4776 0.229883 11.05L0.229889 11.0503Z" fill="white"/>
</svg>

<svg width="36" height="22" fill="none" xmlns="http://www.w3.org/2000/svg"><path d="M.23 11.05c.007-.383.157-.83.416-1.114L9.108.643C9.683.11 10.804-.13 11.472.46c.659.58.664 1.733.034 2.344l-5.95 6.525 28.727-.616a1.616 1.616 0 0 1 1.658 1.572 1.616 1.616 0 0 1-1.589 1.642l-28.727.616 6.224 6.265c.566.537.694 1.728.067 2.343-.626.615-1.795.448-2.37-.083L.693 12.146A1.538 1.538 0 0 1 .23 11.05z" fill="#fff"/></svg>
